images/dark/group.svg

<svg height="16" viewBox="0 0 16 16" width="16" xmlns="http://www.w3.org/2000/svg" xmlns:xlink="http://www.w3.org/1999/xlink"><image height="16" width="16" xlink:href="data:image/png;base64,iVBORw0KGgoAAAANSUhEUgAAABAAAAAQCAYAAAAf8/9hAAAAAXNSR0IArs4c6QAAABVJREFUOBFjYBgFoyEwGgKjIQAJAQAEEAABvmNTIgAAAABJRU5ErkJggg=="/><g fill="#c5c5c5"><path d="m11 5c0-1.657-1.343-3-3-3s-3 1.343-3 3 1.343 3 3 3 3-1.343 3-3z"/><path d="m7 11c0-1.657-1.343-3-3-3s-3 1.343-3 3 1.343 3 3 3 3-1.343 3-3z"/><path d="m15 11c0-1.657-1.343-3-3-3s-3 1.343-3 3 1.343 3 3 3 3-1.343 3-3z"/></g></svg>

<?xml version="1.0" encoding="UTF-8"?>
<svg width="16px" height="16px" viewBox="0 0 16 16" xmlns="http://www.w3.org/2000/svg" xmlns:xlink="http://www.w3.org/1999/xlink" version="1.1">
 <!-- Generated by Pixelmator Pro 1.2.4 -->
 <defs>
  <image id="image" width="16px" height="16px" xlink:href="data:image/png;base64,iVBORw0KGgoAAAANSUhEUgAAABAAAAAQCAYAAAAf8/9hAAAAAXNSR0IArs4c6QAAABVJREFUOBFjYBgFoyEwGgKjIQAJAQAEEAABvmNTIgAAAABJRU5ErkJggg=="/>
 </defs>
 <use id="untitled-layer" xlink:href="#image" x="0px" y="0px" width="16px" height="16px"/>
 <path id="path" d="M11 5 C11 3.343 9.657 2 8 2 6.343 2 5 3.343 5 5 5 6.657 6.343 8 8 8 9.657 8 11 6.657 11 5 Z" fill="#c5c5c5" fill-opacity="1" stroke="none"/>
 <path id="path-1" d="M7 11 C7 9.343 5.657 8 4 8 2.343 8 1 9.343 1 11 1 12.657 2.343 14 4 14 5.657 14 7 12.657 7 11 Z" fill="#c5c5c5" fill-opacity="1" stroke="none"/>
 <path id="path-2" d="M15 11 C15 9.343 13.657 8 12 8 10.343 8 9 9.343 9 11 9 12.657 10.343 14 12 14 13.657 14 15 12.657 15 11 Z" fill="#c5c5c5" fill-opacity="1" stroke="none"/>
</svg>
